X:17
T:Lichtmann 17
C:J. J. Mouret
M:2/2
L:1/8
Q:"Allegro" 1/2=76
K:F
!f!A"_stately"G|F2C2F2G2|(AB)AG FGAB|c2 cc c2d2|(c/d/c2) B A2 AB|c2f2c2 cB|A2 GA (Bc)AB|
G2C2G2GG|G6 AG|F2C2F2G2|(AB)AG FGAB|c2 cc c2d2|(c/d/c2) B A2 AB|c2f2c2 cB|
A2 GA (Bc)AB|(Gc)BA G3 F|F6 AB||c2 cc c2 c2|A2F2 (FE)FG|A2 GA (BA)GF|
(GF)ED CBAB|c2 cc c2 c2|A2 F2 (FE)FG|A2 GA (BA)GF|c6 AG||F2C2 (FE)FG|
(AB)AG (F/C/D/E/ F/G/A/B/)|c2 cc c2 d2|(c/d/c2) B A2 AB|c2f2c2 cB|A2 GA (Bc/B/) (AB/A/)|(Gc)BA G3 F|F6|]

